;FLAVOR:Marlin
;TIME:21186
;Filament used: 16.9452m
;Layer height: 0.2
;MINX:11.285
;MINY:26.553
;MINZ:0.3
;MAXX:192.115
;MAXY:173.447
;MAXZ:32.5
;Generated with Cura_SteamEngine 4.2.1
M140 S60
M105
M190 S60
M104 S210
M105
M109 S210
M82 ;absolute extrusion mode
G21 ;metric values
 G90 ;absolute positioning
 M82 ;set extruder to absolute mode
 M107 ;start with the fan off
 G28 X0 Y0 ;move X/Y to min endstops
 G28 Z0 ;move Z to min endstops
 G1 Z15.0 F120 ;move the platform down 15mm
 G92 E0 ;zero the extruded length
 G1 F200 E6 ;extrude 6 mm of feed stock
 G92 E0 ;zero the extruded length again
 G1 F120 
 ;Put printing message on LCD screen
 M117 Printing...
M141 S28
G92 E0
G92 E0
G1 F1500 E-2
;LAYER_COUNT:162
;LAYER:0
M107
G0 F3600 X13.359 Y26.882 Z0.3
;TYPE:SKIRT
G1 F1500 E0
G1 F1200 X13.83 Y26.698 E0.02523
G1 X14.324 Y26.592 E0.05043
G1 X14.654 Y26.564 E0.06696
G1 X14.985 Y26.554 E0.08348
G1 X15.082 Y26.553 E0.08832
G1 X37.651 Y26.554 E1.21429
G1 X37.696 Y26.554 E1.21654
G1 X39.598 Y26.581 E1.31144
G1 X42.358 Y26.581 E1.44913
G1 X43.503 Y26.556 E1.50627
G1 X43.572 Y26.555 E1.50971
G1 X48.336 Y26.554 E1.74739
G1 X48.382 Y26.554 E1.74969
G1 X49.1 Y26.564 E1.78551
G1 X49.147 Y26.565 E1.78786
G1 X52.006 Y26.647 E1.93055
G1 X54.731 Y26.647 E2.0665
G1 X55.777 Y26.612 E2.11872
G1 X55.823 Y26.611 E2.12101
G1 X58.604 Y26.558 E2.25978
G1 X58.665 Y26.557 E2.26282
G1 X103.811 Y26.557 E4.51517
G1 X106.117 Y26.566 E4.63022
G1 X107.22 Y26.557 E4.68525
G1 X188.254 Y26.557 E8.72805
G1 X188.952 Y26.567 E8.76288
G1 X189.455 Y26.614 E8.78808
G1 X189.945 Y26.74 E8.81332
G1 X190.409 Y26.942 E8.83857
G1 X190.835 Y27.214 E8.86378
G1 X191.213 Y27.549 E8.88898
G1 X191.533 Y27.94 E8.91419
G1 X191.788 Y28.377 E8.93943
G1 X191.971 Y28.848 E8.96464
G1 X192.078 Y29.342 E8.98986
G1 X192.105 Y29.675 E9.00653
G1 X192.114 Y29.989 E9.0222
G1 X192.115 Y30.081 E9.02679
G1 X192.115 Y101.772 E12.60347
G1 X192.105 Y102.499 E12.63974
G1 X192.058 Y103.002 E12.66495
G1 X191.932 Y103.492 E12.69019
G1 X191.731 Y103.956 E12.71542
G1 X191.459 Y104.382 E12.74063
G1 X191.124 Y104.761 E12.76587
G1 X190.733 Y105.081 E12.79107
G1 X190.23 Y105.368 E12.81997
G1 X189.186 Y105.843 E12.87719
G1 X189.138 Y105.864 E12.8798
G1 X188.811 Y106.006 E12.89759
G1 X186.341 Y107.165 E13.03371
G1 X183.871 Y108.409 E13.17169
G1 X181.477 Y109.703 E13.30745
G1 X179.101 Y111.074 E13.44431
G1 X176.78 Y112.502 E13.58027
G1 X174.484 Y114.006 E13.7172
G1 X172.254 Y115.56 E13.85281
G1 X170.008 Y117.22 E13.99214
G1 X167.886 Y118.883 E14.12665
G1 X165.776 Y120.636 E14.26351
G1 X163.73 Y122.436 E14.39946
G1 X161.717 Y124.308 E14.53661
G1 X159.763 Y126.235 E14.67352
G1 X157.86 Y128.22 E14.81071
G1 X156.029 Y130.24 E14.94673
G1 X154.243 Y132.324 E15.08366
G1 X152.536 Y134.439 E15.21926
G1 X150.861 Y136.638 E15.35717
G1 X149.266 Y138.855 E15.49342
G1 X147.739 Y141.113 E15.62942
G1 X146.277 Y143.411 E15.7653
G1 X144.864 Y145.779 E15.90288
G1 X143.533 Y148.159 E16.03892
G1 X142.255 Y150.603 E16.17652
G1 X141.061 Y153.055 E16.31258
G1 X139.929 Y155.554 E16.44945
G1 X138.873 Y158.075 E16.58581
G1 X137.876 Y160.651 E16.72362
G1 X136.981 Y163.186 E16.85774
G1 X136.127 Y165.836 E16.99665
G1 X135.372 Y168.426 E17.13124
G1 X134.687 Y171.045 E17.2663
G1 X134.521 Y171.522 E17.2915
G1 X134.281 Y171.968 E17.31676
G1 X133.975 Y172.37 E17.34197
G1 X133.609 Y172.719 E17.3672
G1 X133.192 Y173.005 E17.39243
G1 X132.736 Y173.223 E17.41764
G1 X132.251 Y173.366 E17.44287
G1 X131.696 Y173.433 E17.47076
G1 X131.362 Y173.444 E17.48743
G1 X131.257 Y173.446 E17.49267
G1 X71.56 Y173.447 E20.47097
G1 X71.514 Y173.447 E20.47326
G1 X70.817 Y173.437 E20.50804
G1 X70.314 Y173.39 E20.53324
G1 X69.824 Y173.264 E20.55848
G1 X69.36 Y173.062 E20.58373
G1 X68.934 Y172.79 E20.60895
G1 X68.556 Y172.455 E20.63415
G1 X68.236 Y172.064 E20.65935
G1 X67.981 Y171.627 E20.6846
G1 X67.768 Y171.05 E20.71528
G1 X67.547 Y170.209 E20.75866
G1 X67.535 Y170.161 E20.76113
G1 X67.287 Y169.155 E20.81282
G1 X66.573 Y166.568 E20.94672
G1 X65.751 Y163.887 E21.08662
G1 X64.879 Y161.307 E21.22249
G1 X63.929 Y158.74 E21.35904
G1 X62.912 Y156.214 E21.4949
G1 X61.822 Y153.716 E21.63087
G1 X60.643 Y151.204 E21.76931
G1 X59.413 Y148.77 E21.90537
G1 X58.128 Y146.39 E22.04031
G1 X56.736 Y143.985 E22.17894
G1 X55.306 Y141.662 E22.31504
G1 X53.797 Y139.361 E22.45232
G1 X52.249 Y137.142 E22.5873
G1 X50.596 Y134.91 E22.72587
G1 X48.927 Y132.784 E22.86072
G1 X47.171 Y130.672 E22.99775
G1 X45.374 Y128.632 E23.13338
G1 X43.498 Y126.617 E23.27073
G1 X41.551 Y124.647 E23.40892
G1 X39.605 Y122.781 E23.54342
G1 X37.565 Y120.935 E23.68068
G1 X35.458 Y119.133 E23.819
G1 X33.357 Y117.439 E23.95365
G1 X31.192 Y115.791 E24.08939
G1 X28.937 Y114.172 E24.22789
G1 X26.686 Y112.651 E24.36343
G1 X24.371 Y111.181 E24.50024
G1 X22.032 Y109.787 E24.63609
G1 X19.608 Y108.432 E24.77463
G1 X17.192 Y107.172 E24.91057
G1 X14.724 Y105.971 E25.04751
G1 X13.406 Y105.355 E25.12009
G1 X12.966 Y105.106 E25.14531
G1 X12.571 Y104.79 E25.17055
G1 X12.231 Y104.416 E25.19577
G1 X11.954 Y103.993 E25.22099
G1 X11.746 Y103.532 E25.24622
G1 X11.615 Y103.044 E25.27143
G1 X11.561 Y102.552 E25.29613
G1 X11.551 Y102.218 E25.3128
G1 X11.55 Y102.124 E25.31749
G1 X11.54 Y82.435 E26.29978
G1 X11.54 Y82.386 E26.30222
G1 X11.55 Y81.71 E26.33595
G1 X11.582 Y81.307 E26.35612
G1 X11.967 Y78.595 E26.49278
G1 X12.277 Y75.858 E26.6302
G1 X12.508 Y73.12 E26.76728
G1 X12.661 Y70.401 E26.90315
G1 X12.738 Y67.65 E27.04045
G1 X12.736 Y64.932 E27.17605
G1 X12.657 Y62.178 E27.31351
G1 X12.501 Y59.432 E27.45073
G1 X12.269 Y56.722 E27.58642
G1 X11.961 Y54.024 E27.7219
G1 X11.767 Y52.594 E27.7939
G1 X11.581 Y51.297 E27.85927
G1 X11.55 Y50.934 E27.87744
G1 X11.541 Y50.618 E27.89322
G1 X11.54 Y50.527 E27.89776
G1 X11.542 Y30.42 E28.9009
G1 X11.542 Y30.376 E28.90309
G1 X11.551 Y29.719 E28.93588
G1 X11.598 Y29.216 E28.96108
G1 X11.724 Y28.726 E28.98632
G1 X11.925 Y28.262 E29.01155
G1 X12.196 Y27.836 E29.03674
G1 X12.532 Y27.458 E29.06197
G1 X12.923 Y27.137 E29.08721
G1 X13.359 Y26.882 E29.11241
G1 F1500 E27.11241
;MESH:VolumeKnob_8_ad.stl
G0 F3600 X15.356 Y29.088
G0 X15.356 Y30.367
G0 X37.696 Y37.674
G0 X37.766 Y37.604
;TYPE:WALL-INNER
G1 F1500 E29.11241
G1 F1200 X43.969 Y37.604 E29.42188
G1 X43.969 Y30.354 E29.78358
G1 X48.444 Y30.354 E30.00684
G1 X48.444 Y36.251 E30.30104
G1 X55.675 Y36.251 E30.6618
G1 X55.675 Y44.151 E31.05593
G1 X48.444 Y44.151 E31.41669
G1 X48.442 Y88.253 E33.61694
G1 X55.673 Y88.254 E33.9777
G1 X55.673 Y95.934 E34.36086
G1 X55.673 Y96.134 E34.37083
G1 X55.473 Y96.134 E34.3773
G1 X48.442 Y96.133 E34.72807
G1 X48.441 Y101.864 E35.01399
G1 X43.955 Y101.865 E35.2378
G1 X43.935 Y97.171 E35.47199
G1 X43.933 Y94.867 E35.58694
G1 X37.765 Y94.868 E35.89466
G1 X37.765 Y101.663 E36.23366
G1 X37.765 Y101.863 E36.24364
G1 X37.565 Y101.863 E36.2501
G1 X15.35 Y101.862 E37.35841
G1 X15.34 Y82.556 E38.32159
G1 X15.34 Y82.356 E38.33157
G1 X15.54 Y82.356 E38.33803
G1 X19.571 Y82.356 E38.53914
G1 X19.572 Y50.456 E40.13064
G1 X19.572 Y50.256 E40.14061
G1 X19.372 Y50.256 E40.14707
G1 X15.54 Y50.256 E40.33825
G1 X15.34 Y50.256 E40.34823
G1 X15.34 Y50.056 E40.35469
G1 X15.342 Y30.353 E41.33768
G1 X37.766 Y30.354 E42.45642
G1 X37.766 Y37.604 E42.81812
G0 F3600 X37.696 Y37.674
G0 X19.671 Y50.657
G0 X19.172 Y50.656
;TYPE:WALL-OUTER
G1 F1200 X18.972 Y50.656 E42.8281
G1 X15.14 Y50.656 E43.01928
G1 X14.94 Y50.656 E43.02926
G1 X14.94 Y50.456 E43.03572
G1 X14.942 Y29.953 E44.05862
G1 X38.166 Y29.954 E45.21727
G1 X38.166 Y37.204 E45.57897
G1 X43.569 Y37.204 E45.84853
G1 X43.569 Y29.954 E46.21023
G1 X48.844 Y29.954 E46.4734
G1 X48.844 Y35.851 E46.7676
G1 X56.075 Y35.851 E47.12836
G1 X56.075 Y44.551 E47.56241
G1 X48.844 Y44.551 E47.92316
G1 X48.842 Y87.853 E50.08351
G1 X56.073 Y87.854 E50.44426
G1 X56.073 Y96.334 E50.86733
G1 X56.073 Y96.534 E50.87731
G1 X55.873 Y96.534 E50.88377
G1 X48.842 Y96.533 E51.23455
G1 X48.841 Y102.264 E51.52047
G1 X43.557 Y102.265 E51.78409
G1 X43.535 Y97.171 E52.03823
G1 X43.533 Y95.267 E52.13322
G1 X38.165 Y95.268 E52.40103
G1 X38.165 Y102.063 E52.74004
G1 X38.165 Y102.263 E52.75002
G1 X37.965 Y102.263 E52.75648
G1 X14.95 Y102.262 E53.9047
G1 X14.94 Y82.156 E54.90779
G1 X14.94 Y81.956 E54.91777
G1 X15.14 Y81.956 E54.92423
G1 X19.171 Y81.956 E55.12534
G1 X19.172 Y50.856 E56.67692
G1 X19.172 Y50.656 E56.68338
G0 F3600 X18.972 Y50.656
G0 X18.972 Y50.156
G0 X19.962 Y49.866
;TYPE:SKIN
G1 F1200 X15.73 Y49.866 E56.89452
G1 X15.732 Y30.743 E57.84857
G1 X37.376 Y30.744 E58.92839
G1 X37.376 Y37.994 E59.2901
G1 X44.359 Y37.994 E59.63848
G1 X44.359 Y30.744 E60.00019
G1 X48.054 Y30.744 E60.18453
G1 X48.054 Y36.641 E60.47873
G1 X55.285 Y36.641 E60.83949
G1 X55.285 Y43.761 E61.19471
G1 X48.054 Y43.761 E61.55546
G1 X48.052 Y88.643 E63.79463
G1 X55.283 Y88.644 E64.15539
G1 X55.283 Y95.744 E64.50961
G1 X48.052 Y95.743 E64.87037
G1 X48.051 Y101.474 E65.15629
G1 X44.343 Y101.475 E65.34128
G1 X44.325 Y97.169 E65.55611
G1 X44.321 Y94.477 E65.69041
G1 X37.375 Y94.478 E66.03695
G1 X37.375 Y101.473 E66.38593
G1 X15.74 Y101.472 E67.46531
G1 X15.73 Y82.746 E68.39955
G1 X19.961 Y82.746 E68.61064
G1 X19.962 Y49.866 E70.25103
G0 F3600 X55.104 Y37.002
G1 F1200 X54.923 Y36.821 E70.2638
G0 F3600 X54.357 Y36.821
G1 F1200 X55.104 Y37.567 E70.31647
G0 F3600 X55.104 Y38.133
G1 F1200 X53.791 Y36.821 E70.40907
G0 F3600 X53.226 Y36.821
G1 F1200 X55.104 Y38.699 E70.54157
G0 F3600 X55.104 Y39.264
G1 F1200 X52.66 Y36.821 E70.71398
G0 F3600 X52.094 Y36.821
G1 F1200 X55.104 Y39.83 E70.92631
G0 F3600 X55.104 Y40.396
G1 F1200 X51.528 Y36.821 E71.17858
G0 F3600 X50.963 Y36.821
G1 F1200 X55.104 Y40.961 E71.47072
G0 F3600 X55.104 Y41.527
G1 F1200 X50.397 Y36.821 E71.80279
G0 F3600 X49.831 Y36.821
G1 F1200 X55.104 Y42.093 E72.17479
G0 F3600 X55.104 Y42.659
G1 F1200 X49.266 Y36.821 E72.58669
G0 F3600 X48.7 Y36.821
G1 F1200 X55.104 Y43.224 E73.0385
G0 F3600 X54.894 Y43.581
G1 F1200 X48.134 Y36.821 E73.51545
G0 F3600 X47.873 Y36.559
G1 F1200 X44.537 Y33.224 E73.75079
G0 F3600 X44.537 Y33.789
G1 F1200 X54.329 Y43.581 E74.44167
G0 F3600 X53.763 Y43.581
G1 F1200 X44.537 Y34.355 E75.09261
G0 F3600 X44.537 Y34.921
G1 F1200 X53.197 Y43.581 E75.70362
G0 F3600 X52.632 Y43.581
G1 F1200 X44.537 Y35.486 E76.27477
G0 F3600 X44.537 Y36.052
G1 F1200 X52.066 Y43.581 E76.80598
G0 F3600 X51.5 Y43.581
G1 F1200 X44.537 Y36.618 E77.29725
G0 F3600 X44.537 Y37.183
G1 F1200 X50.935 Y43.581 E77.74867
G0 F3600 X50.369 Y43.581
G1 F1200 X44.537 Y37.749 E78.16015
G0 F3600 X44.396 Y38.173
G1 F1200 X49.803 Y43.581 E78.54168
G0 F3600 X49.237 Y43.581
G1 F1200 X43.83 Y38.173 E78.9232
G0 F3600 X43.265 Y38.173
G1 F1200 X48.672 Y43.581 E79.30473
G0 F3600 X48.106 Y43.581
G1 F1200 X42.699 Y38.173 E79.68626
G0 F3600 X42.133 Y38.173
G1 F1200 X47.873 Y43.913 E80.09125
G0 F3600 X47.873 Y44.479
G1 F1200 X41.567 Y38.173 E80.53617
G0 F3600 X41.002 Y38.173
G1 F1200 X47.873 Y45.044 E81.02096
G0 F3600 X47.873 Y45.61
G1 F1200 X40.436 Y38.173 E81.54568
G0 F3600 X39.87 Y38.173
G1 F1200 X47.873 Y46.176 E82.11033
G0 F3600 X47.873 Y46.741
G1 F1200 X39.305 Y38.173 E82.71485
G0 F3600 X38.739 Y38.173
G1 F1200 X47.873 Y47.307 E83.3593
G0 F3600 X47.873 Y47.873
G1 F1200 X38.173 Y38.173 E84.04369
G0 F3600 X37.608 Y38.173
G1 F1200 X47.873 Y48.438 E84.76794
G0 F3600 X47.873 Y49.004
G1 F1200 X29.792 Y30.923 E86.04365
G0 F3600 X29.226 Y30.923
G1 F1200 X47.873 Y49.57 E87.3593
G0 F3600 X47.873 Y50.135
G1 F1200 X28.661 Y30.923 E88.71481
G0 F3600 X28.095 Y30.923
G1 F1200 X47.873 Y50.701 E90.11026
G0 F3600 X47.873 Y51.267
G1 F1200 X27.529 Y30.923 E91.54564
G0 F3600 X26.964 Y30.923
G1 F1200 X47.873 Y51.833 E93.02091
G0 F3600 X47.873 Y52.398
G1 F1200 X26.398 Y30.923 E94.53609
G0 F3600 X25.832 Y30.923
G1 F1200 X47.873 Y52.964 E96.0912
G0 F3600 X47.873 Y53.53
G1 F1200 X25.267 Y30.923 E97.68621
G0 F3600 X24.701 Y30.923
G1 F1200 X47.873 Y54.095 E99.32112
G0 F3600 X47.873 Y54.661
G1 F1200 X24.135 Y30.923 E100.99597
G0 F3600 X23.569 Y30.923
G1 F1200 X47.873 Y55.227 E102.71075
G0 F3600 X47.873 Y55.792
G1 F1200 X23.003 Y30.923 E104.46542
G0 F3600 X22.437 Y30.923
G1 F1200 X47.873 Y56.358 E106.26003
G0 F3600 X47.873 Y56.924
G1 F1200 X21.872 Y30.923 E108.09455
G0 F3600 X21.306 Y30.923
G1 F1200 X47.873 Y57.489 E109.96896
G0 F3600 X47.873 Y58.055
G1 F1200 X20.74 Y30.923 E111.8833
G0 F3600 X20.175 Y30.923
G1 F1200 X47.873 Y58.621 E113.83754
G0 F3600 X47.873 Y59.186
G1 F1200 X19.609 Y30.923 E115.83169
G0 F3600 X19.043 Y30.923
G1 F1200 X47.873 Y59.752 E117.86576
G0 F3600 X47.873 Y60.318
G1 F1200 X18.478 Y30.923 E119.93974
G0 F3600 X17.912 Y30.923
G1 F1200 X47.873 Y60.884 E122.05365
G0 F3600 X47.873 Y61.449
G1 F1200 X17.346 Y30.923 E124.20746
G0 F3600 X16.781 Y30.923
G1 F1200 X47.873 Y62.015 E126.40117
G0 F3600 X47.873 Y62.581
G1 F1200 X16.215 Y30.923 E128.63481
G0 F3600 X15.911 Y31.184
G1 F1200 X47.873 Y63.146 E130.8899
G0 F3600 X47.873 Y63.712
G1 F1200 X15.911 Y31.75 E133.14499
G0 F3600 X15.911 Y32.316
G1 F1200 X47.873 Y64.278 E135.40009
G0 F3600 X47.873 Y64.843
G1 F1200 X15.911 Y32.881 E137.65518
G0 F3600 X15.911 Y33.447
G1 F1200 X47.873 Y65.409 E139.91027
G0 F3600 X47.873 Y65.975
G1 F1200 X15.911 Y34.013 E142.16536
G0 F3600 X15.911 Y34.578
G1 F1200 X47.872 Y66.54 E144.42042
G0 F3600 X47.872 Y67.105
G1 F1200 X15.911 Y35.144 E146.67544
G0 F3600 X15.911 Y35.71
G1 F1200 X47.872 Y67.671 E148.93046
G0 F3600 X47.872 Y68.237
G1 F1200 X15.911 Y36.275 E151.18552
G0 F3600 X15.911 Y36.841
G1 F1200 X47.872 Y68.802 E153.44054
G0 F3600 X47.872 Y69.368
G1 F1200 X15.91 Y37.406 E155.69563
G0 F3600 X15.91 Y37.972
G1 F1200 X47.872 Y69.934 E157.95072
G0 F3600 X47.872 Y70.499
G1 F1200 X15.91 Y38.538 E160.20578
G0 F3600 X15.91 Y39.103
G1 F1200 X47.872 Y71.065 E162.46087
G0 F3600 X47.872 Y71.631
G1 F1200 X15.91 Y39.669 E164.71596
G0 F3600 X15.91 Y40.235
G1 F1200 X47.872 Y72.197 E166.97105
G0 F3600 X47.872 Y72.762
G1 F1200 X15.91 Y40.8 E169.22614
G0 F3600 X15.91 Y41.366
G1 F1200 X47.872 Y73.328 E171.48124
G0 F3600 X47.872 Y73.894
G1 F1200 X15.91 Y41.932 E173.73633
G0 F3600 X15.91 Y42.497
G1 F1200 X47.872 Y74.459 E175.99142
G0 F3600 X47.872 Y75.025
G1 F1200 X15.91 Y43.063 E178.24651
G0 F3600 X15.909 Y43.628
G1 F1200 X47.872 Y75.591 E180.50167
G0 F3600 X47.872 Y76.156
G1 F1200 X15.909 Y44.194 E182.7568
G0 F3600 X15.909 Y44.759
G1 F1200 X47.872 Y76.722 E185.01196
G0 F3600 X47.872 Y77.288
G1 F1200 X15.909 Y45.325 E187.26712
G0 F3600 X15.909 Y45.891
G1 F1200 X19.703 Y49.684 E187.53478
G0 F3600 X19.137 Y49.684
G1 F1200 X15.909 Y46.456 E187.76253
G0 F3600 X15.909 Y47.022
G1 F1200 X18.572 Y49.684 E187.95038
G0 F3600 X18.006 Y49.684
G1 F1200 X15.909 Y47.588 E188.0983
G0 F3600 X15.909 Y48.153
G1 F1200 X17.44 Y49.684 E188.20632
G0 F3600 X16.875 Y49.684
G1 F1200 X15.909 Y48.719 E188.27444
G0 F3600 X15.909 Y49.285
G1 F1200 X16.309 Y49.684 E188.30263
G0 F3600 X20.141 Y50.122
G1 F1200 X47.872 Y77.853 E190.2592
G0 F3600 X47.872 Y78.419
G1 F1200 X20.141 Y50.688 E192.21578
G0 F3600 X20.141 Y51.253
G1 F1200 X47.872 Y78.985 E194.17238
G0 F3600 X47.872 Y79.55
G1 F1200 X20.141 Y51.819 E196.12895
G0 F3600 X20.141 Y52.385
G1 F1200 X47.872 Y80.116 E198.08553
G0 F3600 X47.872 Y80.682
G1 F1200 X20.141 Y52.95 E200.04213
G0 F3600 X20.141 Y53.516
G1 F1200 X47.872 Y81.247 E201.9987
G0 F3600 X47.872 Y81.813
G1 F1200 X20.141 Y54.082 E203.95528
G0 F3600 X20.141 Y54.648
G1 F1200 X47.872 Y82.379 E205.91185
G0 F3600 X47.872 Y82.945
G1 F1200 X20.141 Y55.213 E207.86846
G0 F3600 X20.141 Y55.779
G1 F1200 X47.872 Y83.51 E209.82503
G0 F3600 X47.872 Y84.076
G1 F1200 X20.141 Y56.345 E211.7816
G0 F3600 X20.141 Y56.91
G1 F1200 X47.872 Y84.642 E213.73821
G0 F3600 X47.872 Y85.207
G1 F1200 X20.141 Y57.476 E215.69478
G0 F3600 X20.141 Y58.042
G1 F1200 X47.872 Y85.773 E217.65135
G0 F3600 X47.872 Y86.339
G1 F1200 X20.141 Y58.607 E219.60796
G0 F3600 X20.141 Y59.173
G1 F1200 X47.872 Y86.904 E221.56453
G0 F3600 X47.872 Y87.47
G1 F1200 X20.141 Y59.739 E223.5211
G0 F3600 X20.141 Y60.304
G1 F1200 X47.872 Y88.036 E225.47771
G0 F3600 X47.872 Y88.601
G1 F1200 X20.141 Y60.87 E227.43428
G0 F3600 X20.141 Y61.436
G1 F1200 X54.267 Y95.562 E229.84205
G0 F3600 X53.701 Y95.562
G1 F1200 X20.141 Y62.001 E232.20993
