;FLAVOR:Marlin
;TIME:24714
;Filament used: 14.7268m
;Layer height: 0.2
;MINX:6.931
;MINY:55.846
;MINZ:0.3
;MAXX:196.715
;MAXY:144.153
;MAXZ:32.5
;Generated with Cura_SteamEngine 4.2.1
M140 S60
M105
M190 S60
M104 S200
M105
M109 S200
M82 ;absolute extrusion mode
G21 ;metric values
 G90 ;absolute positioning
 M82 ;set extruder to absolute mode
 M107 ;start with the fan off
 G28 X0 Y0 ;move X/Y to min endstops
 G28 Z0 ;move Z to min endstops
 G1 Z15.0 F120 ;move the platform down 15mm
 G92 E0 ;zero the extruded length
 G1 F200 E6 ;extrude 6 mm of feed stock
 G92 E0 ;zero the extruded length again
 G1 F120 
 ;Put printing message on LCD screen
 M117 Printing...
M141 S28
G92 E0
G92 E0
G1 F1500 E-1.5
;LAYER_COUNT:162
;LAYER:0
M107
G0 F3600 X12.773 Y56.342 Z0.3
;TYPE:SKIRT
G1 F1500 E0
G1 F900 X13.546 Y56.183 E0.03937
G1 X14.332 Y56.102 E0.07879
G1 X14.733 Y56.092 E0.09881
G1 X38.374 Y56.093 E1.27826
G1 X39.163 Y56.133 E1.31767
G1 X39.944 Y56.253 E1.3571
G1 X40.708 Y56.45 E1.39646
G1 X41.397 Y56.706 E1.43313
G1 X41.689 Y56.58 E1.449
G1 X42.442 Y56.343 E1.48838
G1 X43.216 Y56.184 E1.5278
G1 X44.001 Y56.103 E1.56717
G1 X44.403 Y56.093 E1.58723
G1 X49.058 Y56.093 E1.81947
G1 X49.847 Y56.133 E1.85889
G1 X50.627 Y56.252 E1.89825
G1 X51.392 Y56.45 E1.93768
G1 X52.132 Y56.724 E1.97704
G1 X52.841 Y57.072 E2.01645
G1 X53.179 Y57.282 E2.0363
G1 X53.543 Y57.029 E2.05842
G1 X54.234 Y56.645 E2.09786
G1 X54.959 Y56.333 E2.13723
G1 X55.712 Y56.096 E2.17662
G1 X56.486 Y55.937 E2.21604
G1 X57.271 Y55.856 E2.25541
G1 X57.673 Y55.846 E2.27547
G1 X104.515 Y55.846 E4.61243
G1 X105.304 Y55.886 E4.65184
G1 X105.626 Y55.935 E4.66809
G1 X106.394 Y55.856 E4.70661
G1 X106.797 Y55.846 E4.72672
G1 X188.915 Y55.846 E8.82361
G1 X189.704 Y55.886 E8.86302
G1 X190.484 Y56.005 E8.90238
G1 X191.249 Y56.203 E8.94181
G1 X191.989 Y56.477 E8.98118
G1 X192.698 Y56.825 E9.02058
G1 X193.369 Y57.243 E9.06002
G1 X193.993 Y57.726 E9.09939
G1 X194.566 Y58.269 E9.13877
G1 X195.081 Y58.868 E9.17818
G1 X195.532 Y59.516 E9.21757
G1 X195.916 Y60.207 E9.25701
G1 X196.228 Y60.932 E9.29639
G1 X196.465 Y61.685 E9.33577
G1 X196.624 Y62.459 E9.37519
G1 X196.705 Y63.244 E9.41457
G1 X196.715 Y63.646 E9.43463
G1 X196.715 Y136.353 E13.062
G1 X196.675 Y137.142 E13.10141
G1 X196.556 Y137.922 E13.14077
G1 X196.358 Y138.687 E13.1802
G1 X196.084 Y139.427 E13.21957
G1 X195.736 Y140.136 E13.25897
G1 X195.318 Y140.807 E13.29841
G1 X194.835 Y141.431 E13.33778
G1 X194.292 Y142.004 E13.37716
G1 X193.693 Y142.519 E13.41657
G1 X193.045 Y142.97 E13.45596
G1 X192.354 Y143.354 E13.4954
G1 X191.629 Y143.666 E13.53478
G1 X190.876 Y143.903 E13.57416
G1 X190.102 Y144.062 E13.61358
G1 X189.317 Y144.143 E13.65295
G1 X188.915 Y144.153 E13.67302
G1 X106.798 Y144.153 E17.76985
G1 X106.009 Y144.113 E17.80926
G1 X105.678 Y144.062 E17.82597
G1 X104.897 Y144.143 E17.86515
G1 X104.495 Y144.153 E17.88521
G1 X57.716 Y144.153 E20.21902
G1 X57.627 Y144.152 E20.22346
G1 X56.839 Y144.103 E20.26285
G1 X56.06 Y143.974 E20.30225
G1 X55.298 Y143.768 E20.34163
G1 X54.56 Y143.486 E20.38104
G1 X53.855 Y143.13 E20.42045
G1 X53.385 Y142.83 E20.44826
G1 X53.184 Y142.97 E20.46048
G1 X52.493 Y143.353 E20.4999
G1 X51.768 Y143.665 E20.53928
G1 X51.014 Y143.902 E20.57871
G1 X50.241 Y144.061 E20.61808
G1 X49.455 Y144.142 E20.6575
G1 X49.055 Y144.152 E20.67746
G1 X44.397 Y144.152 E20.90985
G1 X43.608 Y144.112 E20.94927
G1 X42.828 Y143.993 E20.98863
G1 X42.063 Y143.795 E21.02806
G1 X41.375 Y143.54 E21.06466
G1 X41.085 Y143.665 E21.08042
G1 X40.332 Y143.902 E21.1198
G1 X39.558 Y144.061 E21.15922
G1 X38.773 Y144.142 E21.19859
G1 X38.372 Y144.152 E21.21861
G1 X14.747 Y144.151 E22.39726
G1 X13.958 Y144.111 E22.43668
G1 X13.177 Y143.991 E22.4761
G1 X12.413 Y143.794 E22.51546
G1 X11.672 Y143.519 E22.55489
G1 X10.963 Y143.172 E22.59427
G1 X10.293 Y142.754 E22.63367
G1 X9.668 Y142.271 E22.67308
G1 X9.096 Y141.727 E22.71246
G1 X8.581 Y141.128 E22.75187
G1 X8.13 Y140.48 E22.79126
G1 X7.746 Y139.79 E22.83066
G1 X7.434 Y139.065 E22.87003
G1 X7.197 Y138.311 E22.90947
G1 X7.038 Y137.538 E22.94884
G1 X6.957 Y136.752 E22.98826
G1 X6.947 Y136.357 E23.00797
G1 X6.931 Y115.651 E24.041
G1 X6.97 Y114.862 E24.08041
G1 X7.089 Y114.082 E24.11978
G1 X7.287 Y113.317 E24.1592
G1 X7.56 Y112.576 E24.1986
G1 X7.907 Y111.867 E24.23798
G1 X8.324 Y111.196 E24.27739
G1 X8.807 Y110.571 E24.3168
G1 X9.35 Y109.998 E24.35618
G1 X9.949 Y109.483 E24.3956
G1 X10.596 Y109.031 E24.43497
G1 X11.171 Y108.711 E24.4678
G1 X11.172 Y91.675 E25.31773
G1 X10.949 Y91.566 E25.33011
G1 X10.278 Y91.148 E25.36955
G1 X9.654 Y90.665 E25.40892
G1 X9.081 Y90.122 E25.44831
G1 X8.566 Y89.523 E25.48772
G1 X8.115 Y88.875 E25.52711
G1 X7.731 Y88.184 E25.56655
G1 X7.419 Y87.459 E25.60592
G1 X7.182 Y86.706 E25.64531
G1 X7.023 Y85.932 E25.68473
G1 X6.942 Y85.147 E25.7241
G1 X6.932 Y84.745 E25.74416
G1 X6.933 Y63.892 E26.78452
G1 X6.973 Y63.103 E26.82394
G1 X7.093 Y62.322 E26.86336
G1 X7.29 Y61.558 E26.90272
G1 X7.565 Y60.817 E26.94215
G1 X7.912 Y60.108 E26.98153
G1 X8.33 Y59.438 E27.02093
G1 X8.813 Y58.813 E27.06034
G1 X9.357 Y58.241 E27.09972
G1 X9.956 Y57.726 E27.13913
G1 X10.604 Y57.275 E27.17852
G1 X11.294 Y56.891 E27.21792
G1 X12.019 Y56.579 E27.2573
G1 X12.773 Y56.342 E27.29673
G0 F3600 X13.126 Y56.669
G1 F900 X13.884 Y56.541 E27.33508
G1 X14.733 Y56.492 E27.37751
G1 X38.374 Y56.493 E28.55696
G1 X39.142 Y56.533 E28.59533
G1 X39.902 Y56.653 E28.63371
G1 X40.646 Y56.85 E28.67211
G1 X41.364 Y57.124 E28.71045
G1 X41.39 Y57.137 E28.7119
G1 X42.054 Y56.876 E28.7475
G1 X42.796 Y56.67 E28.78592
G1 X43.554 Y56.542 E28.82427
G1 X44.403 Y56.493 E28.8667
G1 X49.058 Y56.493 E29.09893
G1 X49.826 Y56.533 E29.1373
G1 X50.586 Y56.652 E29.17568
G1 X51.329 Y56.85 E29.21404
G1 X52.048 Y57.124 E29.25243
G1 X52.734 Y57.471 E29.29078
G1 X53.191 Y57.765 E29.3179
G1 X53.284 Y57.688 E29.32392
G1 X53.926 Y57.265 E29.36228
G1 X54.609 Y56.91 E29.40068
G1 X55.324 Y56.629 E29.43901
G1 X56.066 Y56.423 E29.47742
G1 X56.824 Y56.295 E29.51578
G1 X57.673 Y56.246 E29.5582
G1 X104.515 Y56.246 E31.89516
G1 X105.283 Y56.286 E31.93353
G1 X105.655 Y56.344 E31.95231
G1 X105.947 Y56.295 E31.96708
G1 X106.797 Y56.246 E32.00956
G1 X188.915 Y56.246 E36.10644
G1 X189.683 Y56.286 E36.14481
G1 X190.443 Y56.405 E36.18319
G1 X191.186 Y56.603 E36.22155
G1 X191.905 Y56.877 E36.25994
G1 X192.591 Y57.224 E36.29829
G1 X193.238 Y57.64 E36.33667
G1 X193.838 Y58.121 E36.37504
G1 X194.385 Y58.662 E36.41342
G1 X194.873 Y59.257 E36.45181
G1 X195.296 Y59.899 E36.49017
G1 X195.651 Y60.582 E36.52857
G1 X195.932 Y61.297 E36.5669
G1 X196.138 Y62.039 E36.60532
G1 X196.266 Y62.797 E36.64367
G1 X196.315 Y63.646 E36.68609
G1 X196.315 Y136.353 E40.31346
G1 X196.275 Y137.121 E40.35183
G1 X196.156 Y137.881 E40.39021
G1 X195.958 Y138.624 E40.42857
G1 X195.684 Y139.343 E40.46696
G1 X195.337 Y140.029 E40.50531
G1 X194.921 Y140.676 E40.54369
G1 X194.44 Y141.276 E40.58205
G1 X193.899 Y141.823 E40.62044
G1 X193.304 Y142.311 E40.65883
G1 X192.662 Y142.734 E40.69718
G1 X191.979 Y143.089 E40.73559
G1 X191.264 Y143.37 E40.77391
G1 X190.522 Y143.576 E40.81233
G1 X189.764 Y143.704 E40.85069
G1 X188.915 Y143.753 E40.89311
G1 X106.798 Y143.753 E44.98995
G1 X106.03 Y143.713 E45.02831
G1 X105.646 Y143.653 E45.0477
G1 X105.344 Y143.704 E45.06298
G1 X104.495 Y143.753 E45.10541
G1 X57.721 Y143.753 E47.43898
G1 X57.632 Y143.752 E47.44342
G1 X56.864 Y143.703 E47.48181
G1 X56.106 Y143.575 E47.52016
G1 X55.365 Y143.369 E47.55853
G1 X54.649 Y143.087 E47.59692
G1 X53.967 Y142.732 E47.63528
G1 X53.386 Y142.349 E47.67
G1 X52.801 Y142.734 E47.70494
G1 X52.118 Y143.088 E47.74332
G1 X51.402 Y143.37 E47.78171
G1 X50.661 Y143.576 E47.82008
G1 X49.903 Y143.703 E47.85843
G1 X49.055 Y143.752 E47.9008
G1 X44.397 Y143.752 E48.13319
G1 X43.629 Y143.712 E48.17156
G1 X42.869 Y143.593 E48.20994
G1 X42.126 Y143.395 E48.2483
G1 X41.407 Y143.121 E48.28669
G1 X41.383 Y143.109 E48.28803
G1 X40.72 Y143.37 E48.32358
G1 X39.978 Y143.576 E48.36199
G1 X39.22 Y143.703 E48.40034
G1 X38.372 Y143.752 E48.44272
G1 X14.747 Y143.751 E49.62137
G1 X13.979 Y143.711 E49.65974
G1 X13.219 Y143.591 E49.69813
G1 X12.475 Y143.394 E49.73652
G1 X11.757 Y143.12 E49.77486
G1 X11.07 Y142.773 E49.81326
G1 X10.424 Y142.357 E49.8516
G1 X9.823 Y141.875 E49.89003
G1 X9.277 Y141.334 E49.92838
G1 X8.789 Y140.74 E49.96673
G1 X8.366 Y140.098 E50.00509
G1 X8.011 Y139.415 E50.04349
G1 X7.729 Y138.699 E50.08188
G1 X7.524 Y137.958 E50.12024
G1 X7.396 Y137.2 E50.15859
G1 X7.347 Y136.357 E50.20072
G1 X7.331 Y115.651 E51.23375
G1 X7.37 Y114.883 E51.27211
G1 X7.489 Y114.123 E51.31049
G1 X7.686 Y113.379 E51.34889
G1 X7.96 Y112.66 E51.38728
G1 X8.306 Y111.973 E51.42565
G1 X8.722 Y111.326 E51.46403
G1 X9.203 Y110.726 E51.50239
G1 X9.743 Y110.179 E51.54074
G1 X10.337 Y109.69 E51.57913
G1 X10.979 Y109.267 E51.61748
G1 X11.571 Y108.959 E51.65078
G1 X11.572 Y91.428 E52.5254
G1 X11.056 Y91.167 E52.55425
G1 X10.409 Y90.751 E52.59263
G1 X9.809 Y90.27 E52.63099
G1 X9.262 Y89.729 E52.66937
G1 X8.774 Y89.134 E52.70777
G1 X8.351 Y88.492 E52.74612
G1 X7.996 Y87.809 E52.78453
G1 X7.715 Y87.094 E52.82285
G1 X7.509 Y86.352 E52.86127
G1 X7.381 Y85.594 E52.89962
G1 X7.332 Y84.745 E52.94205
G1 X7.333 Y63.892 E53.98241
G1 X7.373 Y63.124 E54.02078
G1 X7.493 Y62.364 E54.05917
G1 X7.69 Y61.62 E54.09756
G1 X7.964 Y60.902 E54.1359
G1 X8.311 Y60.215 E54.1743
G1 X8.727 Y59.568 E54.21268
G1 X9.209 Y58.968 E54.25108
G1 X9.75 Y58.422 E54.28942
G1 X10.344 Y57.934 E54.32778
G1 X10.986 Y57.511 E54.36613
G1 X11.669 Y57.156 E54.40454
G1 X12.385 Y56.874 E54.44293
G1 X13.126 Y56.669 E54.48129
G0 F3600 X12.746 Y57.18
G1 F900 X13.474 Y57.006 E54.51863
G1 X14.216 Y56.911 E54.55595
G1 X14.733 Y56.892 E54.58176
G1 X38.374 Y56.893 E55.76121
G1 X39.121 Y56.933 E55.79854
G1 X39.86 Y57.052 E55.83588
G1 X40.581 Y57.25 E55.87318
G1 X41.278 Y57.524 E55.91055
G1 X41.393 Y57.584 E55.91702
G1 X41.711 Y57.431 E55.93462
G1 X42.416 Y57.181 E55.97194
G1 X43.144 Y57.007 E56.00928
G1 X43.886 Y56.912 E56.0466
G1 X44.403 Y56.893 E56.07242
G1 X49.058 Y56.893 E56.30465
G1 X49.805 Y56.933 E56.34198
G1 X50.543 Y57.052 E56.37927
G1 X51.265 Y57.25 E56.41662
G1 X51.961 Y57.523 E56.45392
G1 X52.624 Y57.87 E56.49125
G1 X53.211 Y58.261 E56.52644
G1 X53.671 Y57.903 E56.55552
G1 X54.307 Y57.508 E56.59287
G1 X54.981 Y57.184 E56.63018
G1 X55.686 Y56.934 E56.6675
G1 X56.414 Y56.76 E56.70485
G1 X57.156 Y56.665 E56.74217
G1 X57.673 Y56.646 E56.76798
G1 X104.515 Y56.646 E59.10493
G1 X105.262 Y56.686 E59.14225
G1 X105.639 Y56.747 E59.16131
G1 X106.278 Y56.665 E59.19345
G1 X106.797 Y56.646 E59.21936
G1 X188.915 Y56.646 E63.31624
G1 X189.662 Y56.686 E63.35356
G1 X190.4 Y56.805 E63.39086
G1 X191.122 Y57.003 E63.42821
G1 X191.818 Y57.276 E63.46551
G1 X192.481 Y57.623 E63.50284
G1 X193.104 Y58.038 E63.54019
G1 X193.678 Y58.517 E63.57749
G1 X194.199 Y59.054 E63.61482
G1 X194.658 Y59.644 E63.65211
G1 X195.053 Y60.28 E63.68946
G1 X195.377 Y60.954 E63.72677
G1 X195.627 Y61.659 E63.76409
G1 X195.801 Y62.387 E63.80143
G1 X195.896 Y63.129 E63.83875
G1 X195.915 Y63.646 E63.86456
G1 X195.915 Y136.353 E67.49193
G1 X195.875 Y137.1 E67.52925
G1 X195.756 Y137.838 E67.56655
G1 X195.558 Y138.56 E67.6039
G1 X195.285 Y139.256 E67.6412
G1 X194.938 Y139.919 E67.67853
G1 X194.523 Y140.542 E67.71588
G1 X194.044 Y141.116 E67.75317
G1 X193.507 Y141.637 E67.7905
G1 X192.917 Y142.096 E67.8278
G1 X192.281 Y142.491 E67.86515
G1 X191.607 Y142.815 E67.90246
G1 X190.902 Y143.065 E67.93978
G1 X190.174 Y143.239 E67.97712
G1 X189.432 Y143.334 E68.01444
G1 X188.915 Y143.353 E68.04025
G1 X106.798 Y143.353 E72.13708
G1 X106.051 Y143.313 E72.17441
G1 X105.664 Y143.251 E72.19396
G1 X105.012 Y143.334 E72.22675
G1 X104.495 Y143.353 E72.25256
G1 X57.725 Y143.353 E74.58593
G1 X57.636 Y143.352 E74.59037
G1 X56.89 Y143.303 E74.62766
G1 X56.153 Y143.175 E74.66498
G1 X55.434 Y142.97 E74.70228
G1 X54.74 Y142.689 E74.73964
G1 X54.081 Y142.335 E74.77696
G1 X53.463 Y141.913 E74.81429
G1 X53.381 Y141.843 E74.81967
G1 X53.056 Y142.096 E74.84022
G1 X52.42 Y142.49 E74.87755
G1 X51.746 Y142.814 E74.91486
G1 X51.041 Y143.064 E74.95217
G1 X50.313 Y143.238 E74.98952
G1 X49.571 Y143.333 E75.02684
G1 X49.055 Y143.352 E75.0526
G1 X44.397 Y143.352 E75.28499
G1 X43.65 Y143.312 E75.32231
G1 X42.912 Y143.193 E75.3596
G1 X42.19 Y142.995 E75.39695
G1 X41.494 Y142.722 E75.43425
G1 X41.379 Y142.662 E75.44073
G1 X41.063 Y142.814 E75.45822
G1 X40.358 Y143.064 E75.49554
G1 X39.63 Y143.238 E75.53288
G1 X38.888 Y143.333 E75.5702
G1 X38.372 Y143.352 E75.59596
G1 X14.747 Y143.351 E76.77462
G1 X14 Y143.311 E76.81194
G1 X13.261 Y143.192 E76.84928
G1 X12.54 Y142.994 E76.88659
G1 X11.843 Y142.72 E76.92395
G1 X11.18 Y142.374 E76.96126
G1 X10.558 Y141.959 E76.99857
G1 X9.983 Y141.48 E77.0359
G1 X9.463 Y140.943 E77.0732
G1 X9.003 Y140.352 E77.11056
G1 X8.609 Y139.717 E77.14784
G1 X8.285 Y139.042 E77.1852
G1 X8.035 Y138.338 E77.22247
G1 X7.861 Y137.61 E77.25981
G1 X7.766 Y136.868 E77.29713
G1 X7.747 Y136.356 E77.32269
G1 X7.731 Y115.65 E78.35572
G1 X7.77 Y114.903 E78.39304
G1 X7.889 Y114.165 E78.43033
G1 X8.086 Y113.443 E78.46767
G1 X8.359 Y112.747 E78.50497
G1 X8.705 Y112.083 E78.54233
G1 X9.119 Y111.461 E78.5796
G1 X9.598 Y110.886 E78.61694
G1 X10.135 Y110.365 E78.65427
G1 X10.725 Y109.905 E78.69159
G1 X11.36 Y109.51 E78.7289
G1 X11.971 Y109.215 E78.76275
G1 X11.972 Y91.171 E79.66297
G1 X11.829 Y91.115 E79.67063
G1 X11.166 Y90.768 E79.70796
G1 X10.543 Y90.353 E79.74531
G1 X9.969 Y89.874 E79.78261
G1 X9.448 Y89.337 E79.81994
G1 X8.989 Y88.747 E79.85723
G1 X8.594 Y88.111 E79.89458
G1 X8.27 Y87.437 E79.93189
G1 X8.02 Y86.732 E79.96921
G1 X7.846 Y86.004 E80.00655
G1 X7.751 Y85.262 E80.04387
G1 X7.732 Y84.745 E80.06969
G1 X7.733 Y63.892 E81.11005
G1 X7.773 Y63.145 E81.14737
G1 X7.893 Y62.406 E81.18472
G1 X8.09 Y61.685 E81.22201
G1 X8.364 Y60.988 E81.25937
G1 X8.71 Y60.325 E81.29668
G1 X9.125 Y59.703 E81.33399
G1 X9.604 Y59.128 E81.37132
G1 X10.142 Y58.608 E81.40865
G1 X10.732 Y58.148 E81.44598
G1 X11.367 Y57.754 E81.48326
G1 X12.042 Y57.43 E81.52062
G1 X12.746 Y57.18 E81.55789
G0 F3600 X13.104 Y57.496
G1 F900 X13.816 Y57.356 E81.59409
G1 X14.733 Y57.292 E81.63995
G1 X38.374 Y57.293 E82.8194
G1 X39.1 Y57.333 E82.85568
G1 X39.816 Y57.452 E82.89189
G1 X40.515 Y57.65 E82.92814
G1 X41.188 Y57.923 E82.96437
G1 X41.382 Y58.028 E82.97537
G1 X41.416 Y58.008 E82.97734
G1 X42.081 Y57.715 E83.0136
G1 X42.774 Y57.497 E83.04984
G1 X43.486 Y57.357 E83.08604
G1 X44.403 Y57.293 E83.1319
G1 X49.058 Y57.293 E83.36414
G1 X49.783 Y57.333 E83.40037
G1 X50.5 Y57.452 E83.43663
G1 X51.199 Y57.65 E83.47287
G1 X51.872 Y57.923 E83.50911
G1 X52.511 Y58.268 E83.54534
G1 X53.108 Y58.682 E83.58158
G1 X53.225 Y58.783 E83.58929
G1 X53.472 Y58.555 E83.60606
G1 X54.057 Y58.125 E83.64229
G1 X54.686 Y57.761 E83.67854
G1 X55.351 Y57.468 E83.7148
G1 X56.044 Y57.25 E83.75104
G1 X56.756 Y57.11 E83.78724
G1 X57.673 Y57.046 E83.8331
G1 X104.515 Y57.046 E86.17006
G1 X105.24 Y57.086 E86.20629
G1 X105.653 Y57.155 E86.22718
G1 X105.879 Y57.11 E86.23867
G1 X106.797 Y57.046 E86.28458
G1 X188.915 Y57.046 E90.38147
G1 X189.64 Y57.086 E90.41769
G1 X190.357 Y57.205 E90.45395
G1 X191.056 Y57.403 E90.4902
G1 X191.729 Y57.676 E90.52643
G1 X192.368 Y58.021 E90.56266
G1 X192.965 Y58.435 E90.59891
G1 X193.513 Y58.911 E90.63512
G1 X194.006 Y59.445 E90.67138
G1 X194.436 Y60.03 E90.7076
G1 X194.8 Y60.659 E90.74386
G1 X195.093 Y61.324 E90.78011
G1 X195.311 Y62.017 E90.81636
G1 X195.451 Y62.729 E90.85256
G1 X195.515 Y63.646 E90.89842
G1 X195.515 Y136.353 E94.52579
G1 X195.475 Y137.078 E94.56201
G1 X195.356 Y137.795 E94.59827
G1 X195.158 Y138.494 E94.63452
G1 X194.885 Y139.167 E94.67075
G1 X194.54 Y139.806 E94.70698
G1 X194.126 Y140.403 E94.74323
G1 X193.65 Y140.951 E94.77944
G1 X193.116 Y141.444 E94.8157
G1 X192.531 Y141.874 E94.85192
G1 X191.902 Y142.238 E94.88818
G1 X191.237 Y142.531 E94.92443
G1 X190.544 Y142.749 E94.96068
G1 X189.832 Y142.889 E94.99688
G1 X188.915 Y142.953 E95.04274
G1 X106.798 Y142.953 E99.13957
G1 X106.073 Y142.913 E99.1758
G1 X105.648 Y142.843 E99.19729
G1 X105.412 Y142.889 E99.20928
G1 X104.495 Y142.953 E99.25514
G1 X57.73 Y142.953 E101.58826
